X:424
T:B424-  She Got Money By't
Q:1/4=120
L:1/4
M:6/4
K:G
D|G2BBGB|F2AAFA|G2BBGB|d3g2D|G2BBGB|F2AAF^D|EGEFAF|\
E3G2::B/c/|d3/2 e/ddBG|g3/2 f/edBG|d3/2 e/ddBG|\
F3A3|D3/2 E/DDBD|EFGAF^D|EGEFAF|E3G2:|]
